white/cred.svg

<!-- Generated by IcoMoon.io -->
<svg version="1.1" xmlns="http://www.w3.org/2000/svg" width="32" height="32" viewBox="0 0 32 32">
<title>cred</title>
<path fill="#fff" d="M16 32c-8.837 0-16-7.163-16-16s7.163-16 16-16 16 7.163 16 16-7.163 16-16 16zM12.136 15.966l-1.253 1.271 4.735 4.763 10.382-10.461-1.253-1.271-9.13 9.19zM14.246 15.656l1.255 1.273 5.616-5.658-1.253-1.271zM11.97 20.486l-4.719-4.786-1.251 1.27 4.734 4.762z"></path>
</svg>

<svg height="32" width="32" xmlns="http://www.w3.org/2000/svg"><path d="M16 32C7.163 32 0 24.837 0 16S7.163 0 16 0s16 7.163 16 16-7.163 16-16 16zm-3.864-16.034l-1.253 1.271L15.618 22 26 11.539l-1.253-1.271-9.13 9.19zm2.11-.31l1.255 1.273 5.616-5.658L19.864 10zm-2.276 4.83L7.251 15.7 6 16.97l4.734 4.762z" fill="#fff" fill-rule="evenodd"/></svg>
